svg/u1faa3.svg

<svg viewBox="0 0 128 128" xmlns="http://www.w3.org/2000/svg">
  <g>
    <g>
      <path d="M66.61,15.39c-27.13,0-49.11,7.21-49.11,16.1l8.15,72.44c0.8,8.79,16.87,20.07,40.97,20.07 s39.97-10.57,40.97-20.07l8.15-72.44C115.72,22.6,93.73,15.39,66.61,15.39z" fill="#03A9F4"/>
      <path d="M115.47,25.8c0-8.89-21.41-15.35-49.33-15.35c-23.96,0-44.38,5.04-49.6,12.17l1.47,13.49 c0,0,10.96,8.56,48.59,8.56c1.35,0,2.66-0.02,3.94-0.04l1.27,13.74h2.21l2.75-13.95c29.5-1.5,38.53-9.24,38.53-9.24L115.47,25.8z " fill="#1F6ABF"/>
    </g>
    <path d="M122.59,18.08c0,0-22.44-5.1-56.69-5.1c-34.25,0-55.87,4.48-55.87,4.48 c0.63,7.35,3.47,13.87,3.47,13.87s9.36,9.96,52.87,9.96s52.67-8.98,54.01-10.48C121.72,29.29,122.59,18.08,122.59,18.08z" fill="#03A9F4"/>
    <path d="M122.51,15.95C120.49,8.69,100.57,4,66.31,4s-54.18,4.69-56.2,11.95 c-1.83,6.6,15.7,13.74,56.2,13.74S124.34,22.55,122.51,15.95z" fill="#81D4FA"/>
    <g>
      <ellipse cx="66.31" cy="15.4" rx="47.64" ry="7.85" fill="#1F6ABF"/>
      <linearGradient id="SVGID_1_" gradientUnits="userSpaceOnUse" x1="18.6673" x2="60.742" y1="15.3986" y2="15.3986">
        <stop offset="0" stop-color="#0A488F"/>
        <stop offset="1" stop-color="#0A488F" stop-opacity="0"/>
      </linearGradient>
      <path d="M60.74,7.55c-28.72,0.97-42.07,4.72-42.07,7.85c0,4.33,20.54,7.34,42.07,7.85V7.55z" fill="url(#SVGID_1_)"/>
    </g>
    <path d="M82.97,53.75c-12.27,6.93-43.7,23.31-60.49,21.99l1.49,13.62c1.44,0.22,34.7,0.98,63.52-32.65 L82.97,53.75z" fill="#1F6ABF"/>
    <g>
      <path d="M17.9,34.94C10.69,42.08,2.65,50.99,6.61,60.61c1.43,3.47,4.42,5.33,6.22,6.13 c0,0,0.06-0.68,0.22-1.83c0.6-4.42,2.85-9.26,6.58-14.59C19.11,45.69,18.36,39.03,17.9,34.94z" fill="#757575"/>
      <path d="M88.14,52.5c-1.44-3.96-5.92-1.8-5.92-1.8c-13.6,7.68-50,25.4-67.8,18.28 c-4.64-1.85-8.49-4.16-10.88-10.41c-0.02,4.5,5.6,17.24,10.21,19.58c3.74,1.89,8.05,3.15,13.24,3.15c8.77,0,19.72-2.99,32.76-8.96 c14.86-6.8,26.09-14.41,26.6-14.75C86.36,57.58,89.45,56.11,88.14,52.5z" fill="#9E9E9E"/>
      <path d="M86.35,48.41c-2.04-1.55-5.5-0.83-8.37,0.65c-1.15,0.42-10.22,6.43-25.01,12.21 c-19.2,7.5-33.44,8.78-41.17,3.71c-4.2-2.76-5.8-6.4-4.88-11.16c1.09-5.65,5.2-11.66,11.1-17.75l-0.23-2.02l-1.55-0.83 C9.68,39.78,4.94,46.59,3.67,53.2C2.5,59.25,4.69,64.29,9.99,67.76c3.88,2.54,8.76,3.58,14.16,3.58 c23.38,0,55.04-18.81,56.73-19.83c0,0,4.52-2.71,6.83,0.68c0.35,0.51,0.84,1.49,0.67,2.82C88.38,55.01,89.55,50.85,86.35,48.41z" fill="#E0E0E0"/>
    </g>
  </g>
</svg>

<svg viewBox="0 0 128 128" xmlns="http://www.w3.org/2000/svg">
  <defs>
    <linearGradient id="SVGID_1_" gradientUnits="userSpaceOnUse" x1="18.6673" x2="60.742" y1="15.3986" y2="15.3986">
      <stop offset="0" stop-color="#0A488F"/>
      <stop offset="1" stop-color="#0A488F" stop-opacity="0"/>
    </linearGradient>
  </defs>
  <path d="M66.61,15.39 C39.48,15.39 17.5,22.6 17.5,31.49 L25.65,103.93 C26.45,112.72 42.52,124 66.62,124 C90.72,124 106.59,113.43 107.59,103.93 L115.74,31.49 C115.72,22.6 93.73,15.39 66.61,15.39 Z" fill="#03A9F4"/>
  <path d="M115.47,25.8 C115.47,16.91 94.06,10.45 66.14,10.45 C42.18,10.45 21.76,15.49 16.54,22.62 L18.01,36.11 C18.01,36.11 28.97,44.67 66.6,44.67 C67.95,44.67 69.26,44.65 70.54,44.63 L71.81,58.37 L74.02,58.37 L76.77,44.42 C106.27,42.92 115.3,35.18 115.3,35.18 L115.47,25.8 Z" fill="#1F6ABF"/>
  <path d="M122.59,18.08 C122.59,18.08 100.15,12.98 65.9,12.98 C31.65,12.98 10.03,17.46 10.03,17.46 C10.66,24.81 13.5,31.33 13.5,31.33 C13.5,31.33 22.86,41.29 66.37,41.29 C109.88,41.29 119.04,32.31 120.38,30.81 C121.72,29.29 122.59,18.08 122.59,18.08 Z" fill="#03A9F4"/>
  <path d="M122.51,15.95 C120.49,8.69 100.57,4 66.31,4 C32.05,4 12.13,8.69 10.11,15.95 C8.28,22.55 25.81,29.69 66.31,29.69 C106.81,29.69 124.34,22.55 122.51,15.95 Z" fill="#81D4FA"/>
  <path d="M113.95,15.4 A47.64 7.85 0 1 1 18.67,15.4 A47.64 7.85 0 1 1 113.95,15.4 Z" fill="#1F6ABF"/>
  <path d="M60.74,7.55 C32.02,8.52 18.67,12.27 18.67,15.4 C18.67,19.73 39.21,22.74 60.74,23.25 L60.74,7.55 Z" fill="url(#SVGID_1_)"/>
  <path d="M82.97,53.75 C70.7,60.68 39.27,77.06 22.48,75.74 L23.97,89.36 C25.41,89.58 58.67,90.34 87.49,56.71 L82.97,53.75 Z" fill="#1F6ABF"/>
  <path d="M17.9,34.94 C10.69,42.08 2.65,50.99 6.61,60.61 C8.04,64.08 11.03,65.94 12.83,66.74 C12.83,66.74 12.89,66.06 13.05,64.91 C13.65,60.49 15.9,55.65 19.63,50.32 C19.11,45.69 18.36,39.03 17.9,34.94 Z" fill="#757575"/>
  <path d="M88.14,52.5 C86.7,48.54 82.22,50.7 82.22,50.7 C68.62,58.38 32.22,76.1 14.42,68.98 C9.78,67.13 5.93,64.82 3.54,58.57 C3.52,63.07 9.14,75.81 13.75,78.15 C17.49,80.04 21.8,81.3 26.99,81.3 C35.76,81.3 46.71,78.31 59.75,72.34 C74.61,65.54 85.84,57.93 86.35,57.59 C86.36,57.58 89.45,56.11 88.14,52.5 Z" fill="#9E9E9E"/>
  <path d="M86.35,48.41 C84.31,46.86 80.85,47.58 77.98,49.06 C76.83,49.48 67.76,55.49 52.97,61.27 C33.77,68.77 19.53,70.05 11.8,64.98 C7.6,62.22 6,58.58 6.92,53.82 C8.01,48.17 12.12,42.16 18.02,36.07 L17.79,34.05 L16.24,33.22 C9.68,39.78 4.94,46.59 3.67,53.2 C2.5,59.25 4.69,64.29 9.99,67.76 C13.87,70.3 18.75,71.34 24.15,71.34 C47.53,71.34 79.19,52.53 80.88,51.51 C80.88,51.51 85.4,48.8 87.71,52.19 C88.06,52.7 88.55,53.68 88.38,55.01 C88.38,55.01 89.55,50.85 86.35,48.41 Z" fill="#E0E0E0"/>
</svg>
